img/placemark.svg

<svg width="50" height="61" viewBox="0 0 50 61" fill="none" xmlns="http://www.w3.org/2000/svg">
<path d="M50 24.5258C50 34.2386 44.2448 42.6327 35.8974 46.6051C33.3333 49.366 25 61 25 61C25 61 16.3462 49.366 14.1026 46.6051C5.75517 42.6327 0 34.2386 0 24.5258C0 10.9806 11.1929 0 25 0C38.8071 0 50 10.9806 50 24.5258Z" fill="black"/>
<path d="M37.9395 24.433L36.1339 22.0287C35.2762 22.737 32.5045 24.5826 30.0217 24.5826C28.523 24.5826 26.9791 23.9342 25.345 23.2358C23.8463 22.6073 22.3115 21.9589 20.6773 21.7594C20.8669 21.5399 21.0746 21.3105 21.2913 21.071C23.0608 19.1157 24.397 17.9785 24.9207 17.5694C25.3901 17.9386 26.5006 18.8963 28.3334 20.9214C28.7848 21.4202 29.0918 21.7694 29.4348 22.1684C30.2474 22.1584 31.2856 21.6796 32.0892 21.2107C31.5746 20.5623 30.9967 19.8739 30.139 18.9362C27.3312 15.8336 26.0131 14.9757 25.8777 14.8859C25.2005 14.4669 24.2887 14.4869 23.6657 14.9458C23.5935 14.9956 21.8871 16.2426 19.4043 18.986C18.1945 20.3228 17.3368 21.4202 16.7771 22.1983C14.0415 23.0762 11.8566 24.812 11.7393 24.9118L13.5088 27.346C13.5449 27.316 16.75 24.7721 19.6932 24.7721C21.1558 24.7721 22.6816 25.4206 24.2977 26.099C25.7964 26.7274 27.3403 27.3759 28.9834 27.5854C28.7487 27.8547 28.4869 28.144 28.216 28.4533C26.3471 30.5183 25.2547 31.4461 24.8123 31.7953C24.2977 31.3862 23.0518 30.3288 21.3364 28.4333C20.9392 27.9944 20.578 27.5754 20.262 27.1963L20.1988 27.1165C19.4043 27.1165 18.3661 27.5854 17.5445 28.0543C18.0591 28.7127 18.7543 29.5606 19.5398 30.4285C22.0587 33.2119 23.6838 34.3691 23.756 34.419C24.406 34.8779 25.3089 34.9078 25.9679 34.5087C26.1034 34.4289 27.3673 33.6109 30.121 30.5582C31.4482 29.0918 32.3329 27.9744 32.9107 27.1963C35.6463 26.3184 37.8222 24.5327 37.9395 24.433Z" fill="white"/>
</svg>

<svg width="50" height="61" fill="none" xmlns="http://www.w3.org/2000/svg"><path d="M50 24.526c0 9.713-5.755 18.107-14.103 22.08C33.333 49.365 25 61 25 61s-8.654-11.634-10.897-14.395C5.755 42.633 0 34.24 0 24.525 0 10.982 11.193 0 25 0s25 10.98 25 24.526z" fill="#000"/><path d="M37.94 24.433l-1.806-2.404c-.858.708-3.63 2.554-6.112 2.554-1.499 0-3.043-.649-4.677-1.347-1.499-.629-3.034-1.277-4.668-1.477.19-.22.398-.448.614-.688 1.77-1.955 3.106-3.093 3.63-3.502.47.37 1.58 1.327 3.412 3.352.452.5.759.848 1.102 1.247.812-.01 1.85-.488 2.654-.957a40.972 40.972 0 00-1.95-2.275c-2.808-3.102-4.126-3.96-4.261-4.05-.677-.42-1.59-.4-2.212.06-.073.05-1.779 1.297-4.262 4.04a37.527 37.527 0 00-2.627 3.212c-2.736.878-4.92 2.614-5.038 2.714l1.77 2.434c.036-.03 3.241-2.574 6.184-2.574 1.463 0 2.989.649 4.605 1.327 1.498.628 3.042 1.277 4.685 1.486-.234.27-.496.559-.767.868-1.869 2.065-2.961 2.993-3.404 3.342-.514-.409-1.76-1.466-3.476-3.362a40.428 40.428 0 01-1.074-1.237l-.063-.08c-.795 0-1.833.47-2.655.938.515.659 1.21 1.507 1.996 2.375 2.519 2.783 4.144 3.94 4.216 3.99.65.459 1.553.489 2.212.09.135-.08 1.4-.898 4.153-3.95 1.327-1.467 2.212-2.585 2.79-3.363 2.735-.878 4.911-2.663 5.029-2.763z" fill="#fff"/></svg>
